X:16036
T:Storhurven
N:Pols fra Vingelen
R:Pols
O:Norway
Q:140
M:3/4
L:1/8
K:Dm
(E|\
F)(D {F}E>)^C D>(E | F)(D {F}E>)^C D2 |\
D>E (3.F.D.F (3.E.^C.E \
|1[DD]>[DD] [A,3E3] :|2 {^C}[DD] [D4D4]| \
K:D
|:(A2 (3Bcd) (3.e.f.g | {g}a2(a>e) f>a |\
(3.g.e.g (3.f.d.f e>c | (df) ed c2 |\
(cA (3B).c.d (3.e.f.g | {g}a2(a>e) f>a |\
(3.g.e.g (3.f.d.f e>c | (c<d) [D4d4]:|
